X: 4
T: Ariel
T: McCuskers' Delight
M: 4/4
L: 1/8
R: hornpipe
K: Amaj
|: (3DCB, |\
A,>CE>A c2 B>A | B>EG>B d2 c>B | c>A (3cde a>ec>A | B>cd>c B>AG>E |
A,>CE>A c2 B>A | B>EG>B d2 c>B | c>eA>c B>dG>B | A2 (3AAA A2 :|
|: (3efg |\
a>ec>e a2 g>a | f>dA>d f2 e>d | (3cBA c>e a>ec>A | B>cd>c B>A (3GFE |
a>ec>e (3aba (3gag | f>d (3AB/c/d (3fgf e>d | (3cde A>c (3Bcd G>B | A2 a2 A2 :|
